actions/24/call-stop.svg

<svg xmlns="http://www.w3.org/2000/svg" viewBox="0 0 24 24">
  <g transform="translate(1 1)">
 <path d="m386.85714 548.07646c-2.56828 0-4.78334 1.3818-6 3.43361l.00001.56641-.00001.99999c0 0 .00001.99999 1.00003 1h3c1 0 1-1 1-1v-.5c0-.831.66901-1.5 1.5-1.5l4.99997-.00001c.83098 0 1.5.669 1.5 1.50001v.5c0 0 0 .99999 1 .99999h3c1 0 1-.99999 1-.99999v-.99999-.56641c-1.21666-2.05181-3.43208-3.4336-6-3.4336z" transform="translate(-378.85714-540.07647)" style="fill:#da4453"/>
</g>
</svg>

<svg xmlns="http://www.w3.org/2000/svg" version="1.1" viewBox="0 0 24 24">
 <g transform="translate(1,1)">
  <path style="fill:#da4453" d="M 386.86,548.08 C 384.29,548.08 382.07,549.46 380.86,551.51 V 552.08 553.08 C 380.86,553.08 380.86,554.08 381.86,554.08 H 384.86 C 385.86,554.08 385.86,553.08 385.86,553.08 V 552.58 C 385.86,551.75 386.53,551.08 387.36,551.08 H 392.36 C 393.19,551.08 393.86,551.75 393.86,552.58 V 553.08 C 393.86,553.08 393.86,554.08 394.86,554.08 H 397.86 C 398.86,554.08 398.86,553.08 398.86,553.08 V 552.08 551.51 C 397.64,549.46 395.43,548.08 392.86,548.08 Z" transform="translate(-378.86,-540.08)"/>
 </g>
</svg>
